img/buzzweb.svg

<svg width="178" height="67" viewBox="0 0 178 67" fill="none" xmlns="http://www.w3.org/2000/svg">
<g clip-path="url(#clip0)">
<path d="M52.4653 19H56.9685V27.3878H57.1115C57.5403 26.8773 58.1837 26.3667 58.9699 26.075C59.6847 25.7103 60.5425 25.5644 61.4717 25.5644C63.4731 25.5644 65.0456 26.2938 66.1893 27.7525C67.2615 29.1383 67.7618 31.3265 67.7618 34.3169C67.7618 37.4532 67.047 39.8602 65.546 41.4648C63.9734 43.1424 61.9006 43.9447 59.2558 43.9447C57.7548 43.9447 56.4682 43.7988 55.253 43.58C54.0379 43.2883 53.1086 43.0694 52.4653 42.7048V19ZM60.1136 29.4301C59.3273 29.4301 58.684 29.6489 58.1122 30.0865C57.6118 30.5242 57.2544 31.1077 56.9685 31.9829V39.5684C57.3259 39.7872 57.6833 39.9331 58.1122 40.0061C58.541 40.0061 59.0414 40.079 59.4703 40.079C60.6854 40.079 61.6146 39.6414 62.258 38.6932C62.9013 37.8179 63.1872 36.4321 63.1872 34.4628C63.1872 31.1077 62.1865 29.4301 60.1136 29.4301ZM75.1956 26.002V35.9216C75.1956 37.3803 75.3386 38.4014 75.696 39.0579C75.9819 39.6414 76.6252 40.0061 77.6259 40.0061C78.4837 40.0061 79.127 39.7143 79.6988 39.2037C80.2707 38.6932 80.6995 38.0367 80.9854 37.3074V26.002H85.4171V38.1826C85.4171 39.1308 85.4886 40.079 85.5601 41.0272C85.6316 41.9024 85.7745 42.7777 85.989 43.5071H82.6295L81.8432 40.8813H81.7002C81.1284 41.8295 80.4136 42.5589 79.4844 43.1424C78.5552 43.7259 77.4115 44.0176 76.1964 44.0176C75.2671 44.0176 74.5523 43.8718 73.8375 43.6529C73.1228 43.4341 72.5509 42.9965 72.122 42.4859C71.6932 41.9754 71.3358 41.246 71.0499 40.2978C70.8354 39.4226 70.6925 38.2556 70.6925 36.8697V26.002H75.1956ZM88.4193 39.6414L95.2098 31.3265L96.9252 29.8677H88.4193V26.002H101.929V29.8677L95.2098 38.2556L93.4943 39.6414H101.929V43.5071H88.4193V39.6414ZM104.145 39.6414L110.935 31.3265L112.651 29.8677H104.145V26.002H117.583V29.8677L110.935 38.2556L109.22 39.6414H117.583V43.5071H104.145V39.6414ZM133.165 26.002L136.31 34.9734L136.953 37.8909H137.096L137.525 34.9004L139.741 26.002H143.815L138.526 43.6529H135.238L131.807 33.8793L131.307 31.6912H131.164L130.735 33.8793L127.447 43.6529H124.087L118.512 26.002H123.372L125.874 34.7545L126.303 37.8909H126.446L127.018 34.7545L129.877 26.002H133.165ZM159.255 41.9754C158.54 42.5589 157.611 43.0694 156.467 43.4341C155.252 43.7988 154.037 44.0176 152.679 44.0176C149.891 44.0176 147.89 43.1424 146.603 41.5378C145.317 39.8602 144.673 37.5991 144.673 34.7545C144.673 31.6912 145.388 29.3572 146.818 27.8255C148.319 26.2938 150.32 25.4915 152.893 25.4915C153.751 25.4915 154.609 25.6373 155.467 25.8561C156.253 26.075 157.039 26.5126 157.682 27.0231C158.326 27.5337 158.826 28.2631 159.183 29.2113C159.612 30.0865 159.755 31.2535 159.755 32.5664C159.755 33.077 159.755 33.5875 159.684 34.171C159.612 34.7545 159.541 35.338 159.469 35.9216H149.176C149.176 37.3803 149.605 38.4744 150.249 39.2037C150.963 40.0061 152.036 40.3708 153.537 40.3708C154.466 40.3708 155.324 40.2249 156.038 39.9331C156.825 39.6414 157.396 39.3496 157.754 39.0579L159.255 41.9754ZM152.822 29.1383C151.678 29.1383 150.82 29.503 150.249 30.2324C149.677 30.9618 149.391 31.91 149.248 33.077H155.609C155.752 31.837 155.538 30.8159 155.038 30.1595C154.609 29.503 153.823 29.1383 152.822 29.1383ZM162.9 19H167.404V27.3878H167.546C168.047 26.8773 168.619 26.3667 169.405 26.075C170.12 25.7103 170.977 25.5644 171.907 25.5644C173.98 25.5644 175.552 26.2938 176.624 27.7525C177.696 29.1383 178.268 31.3265 178.268 34.3169C178.268 37.4532 177.482 39.8602 175.981 41.4648C174.408 43.1424 172.336 43.9447 169.691 43.9447C168.261 43.9447 166.903 43.7988 165.688 43.58C164.473 43.2883 163.544 43.0694 162.9 42.7048V19ZM170.62 29.4301C169.762 29.4301 169.119 29.6489 168.547 30.0865C168.047 30.5242 167.689 31.1077 167.404 31.9829V39.5684C167.761 39.7872 168.19 39.9331 168.547 40.0061C168.976 40.0061 169.476 40.079 169.905 40.079C171.12 40.079 172.05 39.6414 172.693 38.6932C173.336 37.8179 173.622 36.4321 173.622 34.4628C173.622 31.1077 172.621 29.4301 170.62 29.4301Z" fill="#9F9CA9"/>
<path d="M0 29.7214H5.50388V23.8135H9.57818V29.7214H15.1535V33.6601H9.57818V39.641H5.50388V33.6601H0V29.7214ZM18.0842 29.7214H23.5881V23.8135H27.6624V29.7214H33.2377V33.6601H27.6624V39.641H23.5881V33.6601H18.0842V29.7214Z" fill="#9F9CA9"/>
</g>
<defs>
<clipPath id="clip0">
<rect width="178" height="67" fill="white"/>
</clipPath>
</defs>
</svg>

<svg width="178" height="67" viewBox="0 0 178 67" fill="none" xmlns="http://www.w3.org/2000/svg">
    <g clip-path="url(#a)" fill="#9F9CA9">
        <path d="M52.465 19h4.503v8.388h.143a4.543 4.543 0 0 1 1.859-1.313c.715-.365 1.572-.51 2.502-.51 2.001 0 3.574.729 4.717 2.188 1.073 1.385 1.573 3.573 1.573 6.564 0 3.136-.715 5.543-2.216 7.148-1.573 1.677-3.645 2.48-6.29 2.48-1.501 0-2.788-.146-4.003-.365-1.215-.292-2.144-.51-2.788-.875V19zm7.649 10.43c-.787 0-1.43.219-2.002.657-.5.437-.858 1.02-1.144 1.896v7.585c.358.22.715.365 1.144.438.429 0 .93.073 1.358.073 1.215 0 2.145-.438 2.788-1.386.643-.875.93-2.26.93-4.23 0-3.355-1.002-5.033-3.074-5.033zm15.082-3.428v9.92c0 1.458.143 2.48.5 3.136.286.583.93.948 1.93.948.858 0 1.501-.292 2.073-.802.572-.51 1-1.167 1.286-1.897V26.002h4.432v12.18c0 .949.072 1.897.143 2.845.072.875.215 1.75.429 2.48h-3.36l-.786-2.626H81.7a6.64 6.64 0 0 1-2.216 2.261c-.929.584-2.072.876-3.288.876-.929 0-1.644-.146-2.358-.365-.715-.219-1.287-.657-1.716-1.167-.429-.51-.786-1.24-1.072-2.188-.215-.875-.358-2.042-.358-3.428V26.002h4.504zm13.223 13.64l6.79-8.316 1.716-1.458H88.42v-3.866h13.51v3.866l-6.72 8.388-1.715 1.385h8.435v3.866h-13.51v-3.866zm15.726 0l6.79-8.316 1.716-1.458h-8.506v-3.866h13.438v3.866l-6.648 8.388-1.715 1.385h8.363v3.866h-13.438v-3.866zm29.02-13.64l3.145 8.971.643 2.918h.143l.429-2.99 2.216-8.899h4.074l-5.289 17.65h-3.288l-3.431-9.773-.5-2.188h-.143l-.429 2.188-3.288 9.774h-3.36l-5.575-17.651h4.86l2.502 8.753.429 3.136h.143l.572-3.136 2.859-8.753h3.288zm26.09 15.973c-.715.584-1.644 1.094-2.788 1.46-1.215.364-2.43.583-3.788.583-2.788 0-4.789-.876-6.076-2.48-1.286-1.678-1.93-3.939-1.93-6.783 0-3.064.715-5.398 2.145-6.93 1.501-1.531 3.502-2.334 6.075-2.334.858 0 1.716.146 2.574.365.786.219 1.572.657 2.215 1.167.644.51 1.144 1.24 1.501 2.188.429.876.572 2.043.572 3.355 0 .511 0 1.021-.071 1.605l-.215 1.75h-10.293c0 1.46.429 2.553 1.073 3.283.714.802 1.787 1.167 3.288 1.167.929 0 1.787-.146 2.501-.438.787-.292 1.358-.583 1.716-.875l1.501 2.917zm-6.433-12.837c-1.144 0-2.002.365-2.573 1.094-.572.73-.858 1.678-1.001 2.845h6.361c.143-1.24-.071-2.261-.571-2.917-.429-.657-1.215-1.022-2.216-1.022zM162.9 19h4.504v8.388h.142c.501-.51 1.073-1.021 1.859-1.313.715-.365 1.572-.51 2.502-.51 2.073 0 3.645.729 4.717 2.188 1.072 1.385 1.644 3.573 1.644 6.564 0 3.136-.786 5.543-2.287 7.148-1.573 1.677-3.645 2.48-6.29 2.48a22.7 22.7 0 0 1-4.003-.365c-1.215-.292-2.144-.51-2.788-.875V19zm7.72 10.43c-.858 0-1.501.219-2.073.657-.5.437-.858 1.02-1.143 1.896v7.585a3.69 3.69 0 0 0 1.143.438c.429 0 .929.073 1.358.073 1.215 0 2.145-.438 2.788-1.386.643-.875.929-2.26.929-4.23 0-3.355-1.001-5.033-3.002-5.033z"/>
        <path d="M0 29.721h5.504v-5.907h4.074v5.907h5.575v3.94H9.578v5.98H5.504v-5.98H0v-3.94zm18.084 0h5.504v-5.907h4.074v5.907h5.576v3.94h-5.576v5.98h-4.074v-5.98h-5.504v-3.94z"/>
    </g>
    <defs>
        <clipPath id="a">
            <path fill="#fff" d="M0 0h178v67H0z"/>
        </clipPath>
    </defs>
</svg>
